packages/foundations/assets/icons/functional/images/security/key_20.svg

<svg width="20" height="20" viewBox="0 0 20 20" fill="none" xmlns="http://www.w3.org/2000/svg">
<g clip-path="url(#clip0_187_269)">
<path fill-rule="evenodd" clip-rule="evenodd" d="M13.2881 2.10699L15.1081 2.10799L16.8941 2.11799C17.3071 2.12999 17.7551 2.58599 17.7851 3.08599L18.0001 6.89799C17.9651 7.391 17.5811 7.79999 17.0761 7.85499L15.9601 7.976L15.8041 9.25099C15.7041 9.63099 15.3961 9.92699 15.0021 10.006L13.5401 10.298C13.5066 10.3313 13.462 10.3758 13.4099 10.4278L13.2348 10.6026C13.1713 10.666 13.104 10.7332 13.0365 10.8007L12.5684 11.2687L12.4901 11.347C12.9581 13.503 12.1921 15.226 11.0811 16.336C9.01607 18.401 5.64407 18.423 3.55807 16.336C1.47107 14.25 1.49007 10.88 3.55807 8.81299C4.66807 7.70299 6.21807 7.14899 7.69807 7.26699L12.5641 2.41399C12.7741 2.20399 13.0581 2.10699 13.2881 2.10699ZM13.6981 4.10699L8.45807 9.33299L7.54007 9.26099C7.46207 9.25399 7.38407 9.25099 7.30607 9.25099C6.44307 9.25099 5.59207 9.607 4.97207 10.228C4.34707 10.852 4.00107 11.684 4.00007 12.571C3.99907 13.459 4.34407 14.294 4.97207 14.923C5.59807 15.549 6.43107 15.893 7.31707 15.893C8.20707 15.893 9.04107 15.549 9.66607 14.923C10.2491 14.341 10.8721 13.321 10.5361 11.771L10.3051 10.707L12.5551 8.455L13.9201 8.18199L14.1671 6.15699L15.9441 5.96599L15.8391 4.11199L13.6981 4.10699ZM8.40017 11.4937C8.99717 12.0907 8.99717 13.0587 8.40017 13.6557C7.80317 14.2527 6.83517 14.2527 6.23817 13.6557C5.64117 13.0587 5.64117 12.0907 6.23817 11.4937C6.83517 10.8967 7.80317 10.8967 8.40017 11.4937Z" fill="#1A1C1F"/>
</g>
<defs>
<clipPath id="clip0_187_269">
<rect width="20" height="20" fill="white"/>
</clipPath>
</defs>
</svg>

<svg xmlns="http://www.w3.org/2000/svg" width="20" height="20" fill="none"><g clip-path="url(#a)"><path fill="#1A1C1F" fill-rule="evenodd" d="m13.288 2.107 1.82.001 1.786.01c.413.012.861.468.891.968L18 6.898a1.04 1.04 0 0 1-.924.957l-1.116.121-.156 1.275c-.1.38-.408.676-.802.755l-1.462.292-.13.13-.175.175-.198.198-.469.468-.078.078c.468 2.156-.298 3.879-1.409 4.989a5.32 5.32 0 1 1-7.523-7.523c1.11-1.11 2.66-1.664 4.14-1.546l4.866-4.853c.21-.21.494-.307.724-.307m.41 2-5.24 5.226-.918-.072a3 3 0 0 0-.234-.01c-.863 0-1.714.356-2.334.977A3.3 3.3 0 0 0 4 12.571a3.3 3.3 0 0 0 .972 2.352c.626.626 1.46.97 2.345.97.89 0 1.724-.344 2.35-.97.582-.582 1.205-1.602.87-3.152l-.232-1.064 2.25-2.252 1.365-.273.247-2.025 1.777-.191-.105-1.854zM8.4 11.494a1.529 1.529 0 1 1-2.162 2.162A1.529 1.529 0 0 1 8.4 11.494" clip-rule="evenodd"/></g><defs><clipPath id="a"><path fill="#fff" d="M0 0h20v20H0z"/></clipPath></defs></svg>
